X: 1
T: Han's
M: 4/4
L: 1/8
R: reel
K: Dmaj
dc|:BE (3EEE BEcE|BE (3EEE BcdB|cA (3AAA eAcA|1ceef e2dc:|2ceef e2de||
|:f2 fe dcBA|effe d2 de|f2 fe fgaf|1ecAc e2de:|2ecAc e2 dc||
